X:1
T:Gus Breo
R:waltz
M:3/4
L:1/8
K:Amix
A3/2B/2A {B}A3/2 G/2A|c3/2d/2e fza|{f}g/2e/2zec d2B/2A/2|
G2E G2E/2G/2|A3/2B/2A {B}A3/2 G/2A|c3/2d/2e fza/2f/2|
g/2e/2zc d2(3B/2A/2G/2|A3 {B}A3|Ja3/2b/2a g3/2a/2g|
f3/2e/2d c2d|{f}e {b}a/2e/2f/2{a}g/2 f3/2e/2d|e3/2c/2A G2E/2G/2|
A3/2B/2A {B}A3/2 G/2A|c3/2d/2e fza/2f/2|
g/2e/2zc d2(3B/2A/2G/2|A3 {B}A3:|
